images/VK_white.svg

<svg width="38" height="38" viewBox="0 0 38 38" fill="none" xmlns="http://www.w3.org/2000/svg">
<path fill-rule="evenodd" clip-rule="evenodd" d="M0 19C0 8.50659 8.50659 0 19 0C29.4934 0 38 8.50659 38 19C38 29.4934 29.4934 38 19 38C8.50659 38 0 29.4934 0 19ZM19.9939 25.2352C19.9939 25.2352 20.3597 25.1953 20.547 24.9978C20.7185 24.8168 20.7126 24.4753 20.7126 24.4753C20.7126 24.4753 20.6898 22.8805 21.4441 22.6451C22.1875 22.4135 23.1421 24.1873 24.1552 24.8694C24.9204 25.3851 25.5013 25.2722 25.5013 25.2722L28.2083 25.2352C28.2083 25.2352 29.6238 25.1496 28.9528 24.0569C28.8973 23.9674 28.5612 23.2483 26.9405 21.7713C25.2425 20.2252 25.4705 20.4753 27.5145 17.8005C28.7595 16.1717 29.2571 15.1773 29.1015 14.7521C28.9538 14.3454 28.0379 14.4534 28.0379 14.4534L24.9908 14.4719C24.9908 14.4719 24.7648 14.4417 24.5972 14.54C24.4337 14.6363 24.3276 14.8611 24.3276 14.8611C24.3276 14.8611 23.8459 16.1211 23.2026 17.1934C21.8456 19.4546 21.3033 19.5743 21.0813 19.4342C20.5649 19.1063 20.6937 18.1187 20.6937 17.4171C20.6937 15.225 21.0327 14.3113 20.0346 14.0749C19.7035 13.9961 19.4596 13.9445 18.6121 13.9357C17.5247 13.925 16.6049 13.9396 16.0835 14.1897C15.7365 14.3561 15.4689 14.7278 15.6324 14.7492C15.8337 14.7754 16.2896 14.8698 16.5315 15.1929C16.8437 15.6103 16.8328 16.5463 16.8328 16.5463C16.8328 16.5463 17.0123 19.1267 16.4135 19.4468C16.0032 19.6667 15.4401 19.2182 14.2298 17.1661C13.6103 16.1153 13.1424 14.9535 13.1424 14.9535C13.1424 14.9535 13.0522 14.7365 12.8907 14.6198C12.6954 14.4787 12.4228 14.4349 12.4228 14.4349L9.52738 14.4534C9.52738 14.4534 9.09222 14.4651 8.93263 14.6509C8.79088 14.8153 8.92173 15.1569 8.92173 15.1569C8.92173 15.1569 11.1887 20.3634 13.756 22.9876C16.1102 25.3928 18.7826 25.2352 18.7826 25.2352H19.9939Z" fill="white"/>
</svg>

<svg width="38" height="38" fill="none" xmlns="http://www.w3.org/2000/svg"><path fill-rule="evenodd" clip-rule="evenodd" d="M0 19C0 8.507 8.507 0 19 0s19 8.507 19 19-8.507 19-19 19S0 29.493 0 19zm19.994 6.235s.366-.04.553-.237c.171-.181.166-.523.166-.523s-.023-1.595.731-1.83c.744-.232 1.698 1.542 2.711 2.224.765.516 1.346.403 1.346.403l2.707-.037s1.416-.085.745-1.178c-.056-.09-.392-.809-2.012-2.286-1.698-1.546-1.47-1.296.574-3.97 1.244-1.63 1.742-2.624 1.587-3.049-.148-.407-1.064-.299-1.064-.299l-3.047.019s-.226-.03-.394.068c-.163.096-.27.321-.27.321s-.481 1.26-1.124 2.332c-1.357 2.262-1.9 2.381-2.122 2.241-.516-.328-.387-1.315-.387-2.017 0-2.192.339-3.106-.66-3.342-.33-.079-.574-.13-1.422-.14-1.087-.01-2.007.005-2.528.255-.348.166-.615.538-.452.56.202.025.658.12.9.443.312.417.3 1.353.3 1.353s.18 2.58-.419 2.9c-.41.22-.973-.228-2.183-2.28a18.925 18.925 0 01-1.088-2.213s-.09-.216-.251-.333a1.27 1.27 0 00-.468-.185l-2.896.018s-.435.012-.594.198c-.142.164-.011.506-.011.506s2.267 5.206 4.834 7.83c2.354 2.406 5.027 2.248 5.027 2.248h1.21z" fill="#fff"/></svg>
